icons/category/icon_category-health_m_black.svg

<?xml version="1.0" encoding="UTF-8"?>
<svg width="24px" height="24px" viewBox="0 0 24 24" version="1.1" xmlns="http://www.w3.org/2000/svg" xmlns:xlink="http://www.w3.org/1999/xlink">
    <!-- Generator: Sketch 48.2 (47327) - http://www.bohemiancoding.com/sketch -->
    <title>icon_category-health_m_black</title>
    <desc>Created with Sketch.</desc>
    <defs></defs>
    <g id="mobile" stroke="none" stroke-width="1" fill="none" fill-rule="evenodd" transform="translate(-1247.000000, -462.000000)">
        <g id="Headings" transform="translate(64.000000, 77.000000)">
            <g id="icon_category_health__m__white" transform="translate(1183.000000, 385.000000)">
                <g id="ungroup">
                    <rect id="Rectangle-path" x="0" y="0" width="24" height="24"></rect>
                    <g id="a1" opacity="0.4"></g>
                    <path d="M10,15 L10,15.757 C8.873,17.994 8.317,20.364 8.317,23 L9.317,23 C9.317,20.833 9.736,18.864 10.541,17 L12,17 C18.627,17 24,11.627 24,5 L24,3 L22,3 C15.373,3 10,8.373 10,15 L10,15 Z M23,5 C23,11.065 18.065,16 12,16 L11,16 L11,15 C11,8.935 15.935,4 22,4 L23,4 L23,5 L23,5 Z" id="Shape" fill="#0B1F35"></path>
                    <path d="M1,7 L1,8 C1,12.418 4.582,16 9,16 L9,15 C9,10.582 5.418,7 1,7 L1,7 Z" id="Shape" fill="#0B1F35" opacity="0.3"></path>
                    <path d="M16.678,8.521 C17.093,8.187 17.445,7.909 17.707,7.736 C17.972,7.566 18.124,7.469 18.124,7.469 C18.124,7.469 17.956,7.537 17.663,7.655 C17.374,7.784 16.958,7.975 16.492,8.263 C15.557,8.833 14.409,9.759 13.405,10.826 C12.392,11.886 11.522,13.076 10.943,14.014 C10.654,14.479 10.424,14.906 10.286,15.178 C10.243,15.262 10.131,15.493 10,15.768 L10,17 L10.533,17 C10.761,16.518 11.373,15.242 11.796,14.528 C12.33,13.621 13.093,12.43 13.988,11.335 C14.861,10.221 15.865,9.214 16.678,8.521 L16.678,8.521 Z" id="Shape" fill="#0B1F35" opacity="0.3"></path>
                </g>
            </g>
        </g>
    </g>
</svg>

<svg xmlns="http://www.w3.org/2000/svg" width="24" height="24" viewBox="0 0 24 24"><path fill="none" d="M0 0h24v24H0z"/><path fill="#0B1F35" d="M23 4v1a11 11 0 0 1-11 11h-1v-1A11 11 0 0 1 22 4h1m1-1h-2a12 12 0 0 0-12 12v2h2A12 12 0 0 0 24 5V3z"/><path fill="#0B1F35" d="M9 16v-1a8 8 0 0 0-8-8v1a8 8 0 0 0 8 8zm5-4.67a20.33 20.33 0 0 1 2.69-2.81c.42-.33.77-.61 1-.79l.42-.27-.46.19a9.6 9.6 0 0 0-1.17.61 15.82 15.82 0 0 0-3.09 2.56A20.11 20.11 0 0 0 10.94 14c-.29.46-.52.89-.66 1.16l-.28.61V17h.53c.23-.48.84-1.76 1.26-2.47a26.09 26.09 0 0 1 2.21-3.2z" opacity=".3"/><path fill="#0B1F35" d="M9.32 23h-1a15.73 15.73 0 0 1 1.74-7.38l.94.46A14.76 14.76 0 0 0 9.32 23z"/></svg>
